dist/icons/Logo.svg

<svg width="204" height="120" viewBox="0 0 204 120" fill="#274163" xmlns="http://www.w3.org/2000/svg">
<g clip-path="url(#clip0_66_481)">
<path d="M125.072 38.7602L113.422 44.8156C113.422 44.8156 108.811 36.4549 106.445 32.3975C104.139 33.6271 103.955 36.2398 104.723 37.7459C105.123 38.5758 118.863 62.582 118.863 62.582C118.863 62.582 109.365 62.5512 105.092 62.582C104.324 62.582 103.893 62.3053 103.525 61.6598C100.389 56.25 97.1926 50.8709 94.0881 45.4303C91.8135 41.4344 90.9529 37.1311 91.6599 32.582C92.1824 29.1393 93.9037 26.25 96.332 23.791C97.6844 22.4385 99.1906 21.3012 100.943 20.4406C104.201 18.8115 111.486 15 111.486 15L125.072 38.7602Z" />
<path d="M90.7376 6.60857L97.0696 17.5819C97.0696 17.5819 96.4856 18.0737 96.2089 18.2889C91.0143 22.1004 87.6024 28.0635 87.295 34.5184C86.8339 43.8012 93.1044 51.8545 97.5614 59.4467C98.1147 60.3996 99.2827 62.5512 99.2827 62.5512C99.2827 62.5512 98.6372 62.5512 98.3913 62.5512C93.9036 62.5512 89.4159 62.5512 84.9282 62.5512C84.2827 62.5512 83.8524 62.3668 83.545 61.7828C79.9487 55.1434 76.0757 49.1188 74.9384 41.4959C73.586 32.1209 75.6761 22.1618 81.547 14.6311C83.9446 11.5573 86.8339 9.03685 90.0307 6.793C90.2151 6.67005 90.4302 6.51636 90.6454 6.51636C90.6761 6.57783 90.7376 6.60857 90.7376 6.60857Z" />
<path d="M129.191 80.2253L75.707 80.1331C75.707 80.1331 76.7214 78.2581 77.2132 77.336C78.996 74.1085 80.8095 70.9118 82.5308 67.6536C82.8997 66.9466 83.3607 66.7622 84.0984 66.7622C89.0165 66.7929 93.9652 66.7622 98.8833 66.7622C105.953 66.7622 112.992 66.7622 120.062 66.7314C120.953 66.7314 121.506 66.9466 121.967 67.7765C124.211 71.711 126.516 75.6146 128.791 79.5183C128.914 79.7335 129.191 80.2253 129.191 80.2253Z" />
<path d="M92.7969 5.19467L102.664 0L109.18 11.1578L99.4055 16.3217L92.7969 5.19467Z" />
<path d="M11.2193 104.846C10.666 102.879 9.6209 100.943 6.79303 100.943C4.27254 100.943 3.28893 102.572 3.28893 104.139C3.28893 106.26 4.85656 107.305 7.40779 108.504C9.95902 109.703 12.9713 111.055 12.9713 114.406C12.9713 117.541 10.0512 120.031 5.8709 120.031C4.08811 120.031 2.24385 119.539 0.891393 119.109C0.645492 118.34 0.215164 115.912 0 114.529L1.01434 114.283C1.56762 116.127 2.98156 118.894 6.33197 118.894C8.79098 118.894 10.2357 117.51 10.2357 115.359C10.2357 113.146 8.54508 112.131 6.05533 110.902C3.93443 109.857 0.706967 108.412 0.706967 105.031C0.706967 102.172 3.0123 99.8362 7.28484 99.8362C9.19057 99.8362 11.0348 100.267 11.7111 100.328C11.834 101.404 11.957 102.664 12.2336 104.601L11.2193 104.846Z" />
<path d="M35.8093 108.443C35.5634 107.521 35.1946 106.598 34.8872 106.23C34.5491 105.738 34.0573 105.492 32.6741 105.492H31.2909V115.082C31.2909 117.326 31.4446 117.449 33.6269 117.664V118.525H26.6187V117.664C28.6782 117.449 28.9241 117.295 28.9241 115.113V105.492H27.9097C26.0655 105.492 25.7273 105.676 25.3585 106.23C25.0204 106.721 24.7437 107.521 24.4671 108.443H23.6064C23.6987 107.459 23.8523 104.969 23.8831 103.894H24.5593C24.8974 104.385 25.1433 104.447 25.6966 104.447H34.672C35.256 104.447 35.4405 104.324 35.7478 103.894H36.3933C36.4241 104.816 36.547 107.121 36.67 108.381L35.8093 108.443Z" />
<path d="M61.3831 118.494H60.6761C58.2478 118.494 57.4486 117.818 56.4958 116.496C55.8503 115.574 54.9589 114.098 54.5593 113.391C54.0368 112.5 53.6986 112.285 52.5613 112.285H51.7929V115.051C51.7929 117.141 52.0695 117.234 54.0368 117.48V118.34H47.3359V117.48C49.2724 117.234 49.4876 117.141 49.4876 115.051V107.459C49.4876 105.246 49.1495 105.215 47.3359 105.062V104.201H54.0368C55.5429 104.201 56.588 104.385 57.5101 104.969C58.3708 105.523 59.047 106.506 59.047 107.859C59.047 109.857 57.6638 111.025 56.1884 111.578C56.5573 112.223 57.4794 113.637 58.1249 114.621C58.8933 115.697 59.2314 116.189 59.754 116.711C60.2765 117.264 60.7683 117.48 61.4753 117.664L61.3831 118.494ZM53.1454 111.271C53.9753 111.271 54.713 111.178 55.297 110.779C56.0962 110.287 56.4343 109.365 56.4343 108.258C56.4343 106.045 54.9896 105.185 53.2991 105.185C52.0388 105.185 51.8236 105.461 51.8236 106.322V111.24H53.1454V111.271Z" />
<path d="M81.24 118.494V117.633L81.8855 117.572C82.8383 117.449 83.0228 117.203 82.5924 116.127L81.7318 114.037H76.6601C76.4449 114.59 76.199 115.236 75.9838 116.004C75.6457 117.142 75.8916 117.387 76.9674 117.541L77.6744 117.633V118.494H72.1724V117.633C73.6785 117.449 74.0166 117.265 74.908 115.082L79.3957 104.109L80.2871 103.986L84.9592 115.543C85.6355 117.295 85.9736 117.418 87.4183 117.603V118.463H81.24V118.494ZM79.1806 107.367L77.0904 112.838H81.3015L79.1806 107.367Z" />
<path d="M110.225 108.443C109.979 107.521 109.611 106.598 109.303 106.23C108.965 105.738 108.473 105.492 107.09 105.492H105.738V115.082C105.738 117.326 105.891 117.449 108.074 117.664V118.525H101.066V117.664C103.125 117.449 103.371 117.295 103.371 115.113V105.492H102.357C100.512 105.492 100.174 105.676 99.8053 106.23C99.4672 106.721 99.1905 107.521 98.9139 108.443H98.0532C98.1454 107.459 98.2991 104.969 98.3299 103.894H99.0061C99.3442 104.385 99.5901 104.447 100.143 104.447H109.119C109.703 104.447 109.887 104.324 110.195 103.894H110.84C110.871 104.816 110.994 107.121 111.117 108.381L110.225 108.443Z" />
<path d="M133.709 114.744C133.555 115.512 133.002 117.848 132.818 118.463H121.783V117.725C124.119 117.541 124.272 117.48 124.272 115.266V107.951C124.272 105.83 124.027 105.707 122.213 105.553V104.754H129.313C130.389 104.754 132.018 104.723 132.541 104.693C132.572 105.246 132.664 106.814 132.787 108.166L131.957 108.258C131.711 107.52 131.527 106.967 131.281 106.568C130.881 105.984 130.512 105.83 129.529 105.83H127.346C126.578 105.83 126.516 105.83 126.516 106.629V110.963H127.777C129.406 110.963 129.559 110.686 129.805 109.119H130.635V113.822H129.805C129.498 112.254 129.436 112.039 127.777 112.039H126.516V115.359C126.516 116.588 126.701 117.203 127.531 117.326C127.9 117.387 128.33 117.418 129.19 117.418C130.943 117.418 131.158 117.264 131.711 116.65C132.049 116.281 132.418 115.605 132.879 114.59L133.709 114.744Z" />
<path d="M158.268 112.193C157.008 112.439 156.916 112.5 156.916 114.006V115.758C156.916 116.557 157.008 117.203 157.1 117.695C155.717 118.033 153.996 118.525 152.275 118.525C147.48 118.525 144.406 115.635 144.406 111.394C144.406 106.476 148.34 104.201 152.551 104.201C154.365 104.201 156.025 104.601 156.793 104.693C156.855 105.523 156.977 107.305 157.131 108.473L156.271 108.596C155.625 106.137 154.641 105.154 151.998 105.154C149.262 105.154 147.049 107.121 147.049 111.025C147.049 114.252 148.678 117.572 152.459 117.572C153.873 117.572 154.641 117.295 154.641 115.912V114.068C154.641 112.654 154.488 112.469 152.213 112.223V111.424H158.299V112.193H158.268Z" />
<path d="M168.935 118.494V117.633C170.502 117.449 170.717 117.326 170.717 115.174V107.705C170.717 105.523 170.533 105.369 168.935 105.215V104.354H174.467V105.215C172.838 105.369 172.685 105.523 172.685 107.705V115.174C172.685 117.295 172.869 117.449 174.467 117.633V118.494H168.935Z" />
<path d="M203.73 114.713C203.299 116.158 202.5 118.34 202.008 119.262C201.117 119.416 198.689 120 196.322 120C188.914 120 185.103 115.021 185.103 109.918C185.103 103.463 190.021 99.498 197.029 99.498C199.58 99.498 201.732 100.082 202.746 100.205C202.869 101.557 203.084 103.402 203.33 104.908L202.377 105.123C201.762 103.094 200.963 101.773 199.365 101.127C198.566 100.758 197.428 100.605 196.26 100.605C191.035 100.605 188.33 104.662 188.33 109.273C188.33 115.113 191.773 118.863 196.506 118.863C199.672 118.863 201.209 117.449 202.777 114.437L203.73 114.713Z" />
<path d="M71.5269 95.871V95.5329C72.5719 95.4406 72.6949 95.3792 72.6949 94.3956V89.7234C72.6949 88.7091 72.6027 88.6784 71.5269 88.5554V88.2173H75.0002V88.5554C73.9244 88.6476 73.8322 88.7091 73.8322 89.7234V94.3956C73.8322 95.4099 73.9244 95.4406 75.0002 95.5329V95.871H71.5269Z" />
<path d="M93.7196 95.9632C93.5659 95.9632 93.4122 95.9632 93.2278 95.9325C92.2749 95.871 91.7831 95.6558 91.2298 94.9181C90.738 94.3341 90.277 93.5656 89.8774 92.9816C89.6315 92.6128 89.4471 92.5206 88.8016 92.5206H88.3405V94.3648C88.3405 95.3484 88.4942 95.4099 89.5085 95.5021V95.8402H86.0659V95.5021C87.1417 95.4099 87.2339 95.3484 87.2339 94.3648V89.6927C87.2339 88.7091 87.0803 88.6476 86.0659 88.5554V88.2173H89.3549C90.3077 88.2173 90.9225 88.3095 91.4143 88.6169C91.9368 88.9242 92.3057 89.4468 92.3057 90.1538C92.3057 91.1681 91.5987 91.7829 90.6458 92.1824C90.8917 92.5513 91.445 93.3197 91.8139 93.873C92.3057 94.4878 92.5516 94.7952 92.8282 95.0718C93.1663 95.4099 93.4737 95.5329 93.7811 95.6251L93.7196 95.9632ZM88.9553 92.1517C89.6315 92.1517 90.0618 92.0595 90.3692 91.8136C90.861 91.4755 91.0762 91.0144 91.0762 90.3689C91.0762 89.1087 90.154 88.6476 89.1704 88.6476C88.8016 88.6476 88.5864 88.7091 88.4942 88.7706C88.3712 88.8628 88.3405 88.955 88.3405 89.2624V92.1517H88.9553Z" />
<path d="M108.381 88.0635C110.594 88.0635 112.562 89.6004 112.562 91.9364C112.562 94.4569 110.687 96.0245 108.289 96.0245C105.799 96.0245 104.017 94.3032 104.017 92.1209C104.017 90.0307 105.646 88.0635 108.381 88.0635ZM108.135 88.4938C106.691 88.4938 105.369 89.6004 105.369 91.7827C105.369 93.9651 106.691 95.5635 108.504 95.5635C110.072 95.5635 111.24 94.5184 111.24 92.2438C111.24 89.8155 109.826 88.4938 108.135 88.4938Z" />
<path d="M132.541 88.5554C131.711 88.6476 131.435 88.7398 131.404 89.2931C131.404 89.662 131.373 90.1538 131.373 91.2603V95.9632H130.881L125.349 89.8156V92.7357C125.349 93.7808 125.379 94.3341 125.41 94.6722C125.441 95.2562 125.748 95.4406 126.701 95.5021V95.8402H123.566V95.5021C124.365 95.4406 124.672 95.2562 124.734 94.7029C124.765 94.3341 124.795 93.8116 124.795 92.7357V89.7542C124.795 89.4161 124.765 89.2316 124.549 88.9857C124.304 88.6784 124.027 88.6169 123.412 88.5554V88.2173H125.349L130.82 94.1189V91.2296C130.82 90.123 130.789 89.6312 130.758 89.2931C130.728 88.7706 130.42 88.5861 129.375 88.5554V88.2173H132.572V88.5554H132.541Z" />
<path d="M161.25 91.5061H141.701V92.5819H161.25V91.5061Z" />
<path d="M62.0287 91.2295H42.4795V92.3053H62.0287V91.2295Z" />
</g>
<defs>
<clipPath id="clip0_66_481">
<rect width="203.73" height="120" fill="white"/>
</clipPath>
</defs>
</svg>

<svg xmlns="http://www.w3.org/2000/svg" width="204" height="120" fill="#274963">
    <defs>
        <linearGradient id="a" x1="0" y1="1" x2="1" y2="0.5">
            <stop offset="0" stop-color="#274963">
                <animate dur="2s" attributeName="offset" fill="freeze"  from="0" to="1" />
            </stop>
            <stop offset="0" stop-color="transparent">
                <animate dur="2s" attributeName="offset" fill="freeze" from="0" to="1" />
            </stop>
        </linearGradient>
    </defs>
    <g fill-rule="evenodd" clip-rule="evenodd" fill="url(#a)" stroke="#274963" stroke-width="0.2px">
        <path d="m125.072 38.76-11.65 6.056s-4.611-8.361-6.977-12.419c-2.306 1.23-2.49 3.843-1.722 5.349.4.83 14.14 24.836 14.14 24.836s-9.498-.03-13.771 0c-.768 0-1.199-.277-1.567-.922-3.136-5.41-6.332-10.79-9.437-16.23-2.274-3.996-3.135-8.299-2.428-12.848.522-3.443 2.244-6.332 4.672-8.791 1.352-1.352 2.859-2.49 4.611-3.35C104.201 18.81 111.486 15 111.486 15l13.586 23.76Z"/>
        <path d="m90.738 6.609 6.332 10.973s-.584.492-.861.707c-5.195 3.811-8.607 9.774-8.914 16.23-.461 9.282 5.81 17.336 10.266 24.928.554.953 1.722 3.104 1.722 3.104H84.928c-.645 0-1.076-.184-1.383-.768-3.596-6.64-7.47-12.664-8.607-20.287-1.352-9.375.738-19.334 6.609-26.865 2.398-3.074 5.287-5.594 8.484-7.838.184-.123.4-.277.614-.277a.231.231 0 0 0 .093.093Zm38.453 73.616-53.484-.092s1.014-1.875 1.506-2.797c1.783-3.227 3.597-6.424 5.318-9.682.369-.707.83-.892 1.567-.892 4.918.03 9.867 0 14.785 0 7.07 0 14.109 0 21.179-.03.891 0 1.444.215 1.905 1.044 2.244 3.935 4.549 7.839 6.824 11.742l.4.707ZM92.797 5.195 102.664 0l6.516 11.158-9.775 5.164-6.608-11.127ZM11.22 104.846c-.554-1.967-1.6-3.903-4.427-3.903-2.52 0-3.504 1.629-3.504 3.196 0 2.121 1.568 3.166 4.119 4.365 2.551 1.199 5.563 2.551 5.563 5.902 0 3.135-2.92 5.625-7.1 5.625-1.783 0-3.627-.492-4.98-.922-.246-.769-.676-3.197-.891-4.58l1.014-.246c.554 1.844 1.968 4.611 5.318 4.611 2.459 0 3.904-1.384 3.904-3.535 0-2.213-1.69-3.228-4.18-4.457-2.122-1.045-5.349-2.49-5.349-5.871 0-2.859 2.305-5.195 6.578-5.195 1.906 0 3.75.431 4.426.492.123 1.076.246 2.336.523 4.273l-1.015.245Zm24.59 3.597c-.247-.922-.615-1.845-.923-2.213-.338-.492-.83-.738-2.213-.738h-1.383v9.59c0 2.244.154 2.367 2.336 2.582v.861h-7.008v-.861c2.06-.215 2.305-.369 2.305-2.551v-9.621H27.91c-1.845 0-2.183.184-2.552.738-.338.491-.614 1.291-.89 2.213h-.862c.093-.984.246-3.474.277-4.549h.676c.338.491.584.553 1.138.553h8.975c.584 0 .769-.123 1.076-.553h.645c.031.922.154 3.227.277 4.487l-.86.062Zm25.573 10.051h-.707c-2.428 0-3.227-.676-4.18-1.998-.646-.922-1.537-2.398-1.937-3.105-.522-.891-.86-1.106-1.998-1.106h-.768v2.766c0 2.09.276 2.183 2.244 2.429v.86h-6.701v-.86c1.936-.246 2.152-.339 2.152-2.429v-7.592c0-2.213-.338-2.244-2.152-2.397v-.861h6.7c1.507 0 2.552.184 3.474.768.86.554 1.537 1.537 1.537 2.89 0 1.998-1.383 3.166-2.859 3.719.37.645 1.291 2.059 1.937 3.043.768 1.076 1.106 1.568 1.629 2.09.523.553 1.014.769 1.721.953l-.092.83Zm-8.238-7.223c.83 0 1.568-.093 2.152-.492.8-.492 1.137-1.414 1.137-2.521 0-2.213-1.444-3.073-3.135-3.073-1.26 0-1.475.276-1.475 1.137v4.918h1.321v.031Zm28.095 7.223v-.861l.645-.061c.953-.123 1.138-.369.707-1.445l-.86-2.09H76.66a20.532 20.532 0 0 0-.676 1.967c-.338 1.138-.092 1.383.983 1.537l.707.092v.861h-5.502v-.861c1.507-.184 1.845-.368 2.736-2.551l4.488-10.973.891-.123 4.672 11.557c.676 1.752 1.015 1.875 2.46 2.06v.86H81.24v.031Zm-2.06-11.127-2.09 5.471h4.212l-2.121-5.471Zm31.045 1.076c-.246-.922-.614-1.845-.922-2.213-.338-.492-.83-.738-2.213-.738h-1.352v9.59c0 2.244.153 2.367 2.336 2.582v.861h-7.008v-.861c2.059-.215 2.305-.369 2.305-2.551v-9.621h-1.014c-1.845 0-2.183.184-2.552.738-.338.491-.615 1.291-.891 2.213h-.86c.091-.984.245-3.474.276-4.549h.676c.338.491.584.553 1.137.553h8.976c.584 0 .768-.123 1.076-.553h.645c.031.922.154 3.227.277 4.487l-.892.062Zm23.484 6.301c-.154.768-.707 3.104-.891 3.719h-11.035v-.738c2.336-.184 2.489-.245 2.489-2.459v-7.315c0-2.121-.245-2.244-2.059-2.398v-.799h7.1c1.076 0 2.705-.031 3.228-.061.031.553.123 2.121.246 3.473l-.83.092c-.246-.738-.43-1.291-.676-1.69-.4-.584-.769-.738-1.752-.738h-2.183c-.768 0-.83 0-.83.799v4.334h1.261c1.629 0 1.782-.277 2.028-1.844h.83v4.703h-.83c-.307-1.568-.369-1.783-2.028-1.783h-1.261v3.32c0 1.229.185 1.844 1.015 1.967.369.061.799.092 1.659.092 1.753 0 1.968-.154 2.521-.768.338-.369.707-1.045 1.168-2.06l.83.154Zm24.559-2.551c-1.26.246-1.352.307-1.352 1.813v1.752c0 .799.092 1.445.184 1.937-1.383.338-3.104.83-4.825.83-4.795 0-7.869-2.89-7.869-7.131 0-4.918 3.934-7.193 8.145-7.193 1.814 0 3.474.4 4.242.492.062.83.184 2.612.338 3.78l-.86.123c-.646-2.459-1.63-3.442-4.273-3.442-2.736 0-4.949 1.967-4.949 5.871 0 3.227 1.629 6.547 5.41 6.547 1.414 0 2.182-.277 2.182-1.66v-1.844c0-1.414-.153-1.599-2.428-1.845v-.799h6.086v.769h-.031Zm10.667 6.301v-.861c1.567-.184 1.782-.307 1.782-2.459v-7.469c0-2.182-.184-2.336-1.782-2.49v-.861h5.532v.861c-1.629.154-1.782.308-1.782 2.49v7.469c0 2.121.184 2.275 1.782 2.459v.861h-5.532Zm34.795-3.781c-.431 1.445-1.23 3.627-1.722 4.549-.891.154-3.319.738-5.686.738-7.408 0-11.219-4.979-11.219-10.082 0-6.455 4.918-10.42 11.926-10.42 2.551 0 4.703.584 5.717.707.123 1.352.338 3.197.584 4.703l-.953.215c-.615-2.029-1.414-3.35-3.012-3.996-.799-.369-1.937-.522-3.105-.522-5.225 0-7.93 4.057-7.93 8.668 0 5.84 3.443 9.59 8.176 9.59 3.166 0 4.703-1.414 6.271-4.426l.953.276ZM71.527 95.871v-.338c1.045-.092 1.168-.154 1.168-1.137v-4.673c0-1.014-.092-1.045-1.168-1.168v-.338H75v.338c-1.076.093-1.168.154-1.168 1.168v4.673c0 1.014.092 1.045 1.168 1.137v.338h-3.473Zm22.193.092c-.154 0-.308 0-.492-.03-.953-.062-1.445-.277-1.998-1.015-.492-.584-.953-1.352-1.353-1.936-.245-.37-.43-.461-1.075-.461h-.462v1.844c0 .983.154 1.045 1.168 1.137v.338h-3.442v-.338c1.076-.092 1.168-.154 1.168-1.137v-4.672c0-.984-.154-1.045-1.168-1.138v-.338h3.289c.953 0 1.567.093 2.06.4.522.307.89.83.89 1.537 0 1.014-.706 1.629-1.66 2.028.247.37.8 1.138 1.169 1.691.492.615.738.922 1.014 1.199.338.338.646.46.953.553l-.061.338Zm-4.765-3.811c.677 0 1.107-.093 1.414-.338.492-.338.707-.8.707-1.445 0-1.26-.922-1.721-1.906-1.721-.368 0-.584.061-.676.123-.123.092-.153.184-.153.491v2.89h.614Zm19.426-4.088c2.213 0 4.181 1.536 4.181 3.872 0 2.52-1.875 4.088-4.273 4.088-2.49 0-4.272-1.72-4.272-3.903 0-2.09 1.629-4.057 4.364-4.057Zm-.246.43c-1.444 0-2.766 1.106-2.766 3.289 0 2.182 1.322 3.78 3.135 3.78 1.568 0 2.736-1.045 2.736-3.32 0-2.427-1.414-3.75-3.105-3.75Zm24.406.061c-.83.093-1.106.185-1.137.738 0 .369-.031.86-.031 1.967v4.703h-.492l-5.532-6.147v2.92c0 1.045.03 1.598.061 1.936.031.584.338.769 1.291.83v.338h-3.135v-.338c.799-.061 1.106-.246 1.168-.8.031-.368.061-.89.061-1.966v-2.982c0-.338-.03-.522-.246-.768-.245-.308-.522-.37-1.137-.43v-.339h1.937l5.471 5.902v-2.89c0-1.106-.031-1.598-.062-1.936-.03-.522-.338-.707-1.383-.738v-.338h3.197v.338h-.031Zm28.709 2.951h-19.549v1.076h19.549v-1.076Zm-99.221-.276h-19.55v1.075h19.55V91.23Z"/>
    </g>
</svg>
